X: 1
T: the Belfast Reel
R: polka
Z: 2009 John Chambers <jc:trillian.mit.edu>
S: Printed MS of unknown origin
M: C|
L: 1/8
K: G
dc \
| "G"B2D2 B2D2 | BABc "(E7)"e2d2 | "Am"c2A2 "D7"fgaf | "G"g2g2 "C"gedc \
| "G"B2D2 B2D2 | BABc "E(m)"e2d2 | "Am"c2A2 "D7"fgaf | "G"g2g2 g2 :|
K: D
|: ag \
| "D"f2gf "A7"e2fe | "D"d2D2 F2A2 | "G"B2cB "D"A2ag | "Em"f2gf "A7"e4 \
| "D"f2gf "A7"e2fe | "D"d2D2 "Bm"F2A2 | "Em"B2cB "A7"A2ag | "D"d6 :|
